X:1
T:To God Be the Glory
T:To God Be the Glory
T:William Howard Doane
T:Frances Jane (Fanny) Crosby, 1875
T:Public Domain Courtesy of the Cyber Hymnal™
T:Public Domain Courtesy of the Cyber Hymnal™
C:William Howard Doane
Z:Public Domain
Z:Courtesy of the Cyber Hymnal™
%%score ( 1 2 ) ( 3 4 )
L:1/8
Q:1/4=115
M:3/4
K:Ab
V:1 treble 
V:2 treble 
V:3 bass 
V:4 bass 
V:1
 [CE]2 | E4 [DF]>[DG] | [CA]2 [CE]2 [EA]2 | [EB]2 E2 [EB]2 | [Ec]4 [Ec]2 | [Fd]2 [DF]2 [Fd]2 | %6
w: 1.~To|God be the|glo- ry, great|things He has|done; So|loved He the|
w: 2.~O|per- fect re-|demp- tion, the|pur- chase of|blood, To|ev- ery be-|
w: 3.~Great|things He has|taught us, great|things He has|done, And|great our re-|
 [Ec]2 [EA]2 [Ec]2 | [=Dc]2 [DFB]2 D2 | [EB]4 [DE]2 | E4 [DF]>[DG] | [CA]2 [CE]2 [EA]2 | %11
w: world that He|gave us His|Son, Who|yield- ed His|life an a-|
w: liev- er the|prom- ise of|God; The|vi- lest of-|fend- er who|
w: joic- ing through|Je- sus the|Son; But|pur- er, and|high- er, and|
 [EB]2 E2 [EB]2 | [Ec]4 [_Gc]2 | [Fe]2 [Fd]2 [FB]2 | [EA]2 [EG]2 [EA]2 | [Ec]2 [Ec]2 [DB]2 | %16
w: tone- ment for|sin, And|o- pened the|life gate that|all may go|
w: tru- ly be-|lieves, That|mo- ment from|Je- sus a|par- don re-|
w: great- er will|be Our|won- der, our|trans- port, when|Je- sus we|
 [CA]4 ||"^Refrain" [Ec]>[Ed] | [Ee]4 [Ac]>[Gd] | [Ae]4 [Ee]>[Ec] | [EA]2 [DB]2 [Cc]2 | %21
w: in.|||||
w: ceives.|Praise the|Lord, praise the|Lord, Let the|earth hear His|
w: see.|||||
 [EB]4 [EB]>[Ec] | [Dd]4 [EB]>[Ec] | [Ed]4 [Ed][EB] | [Ee]2 [Ee]2 [Ed]2 | [Ec]4 [DE]2 | %26
w: |||||
w: voice! Praise the|Lord, praise the|Lord, Let the|peo- ple re-|joice! O|
w: |||||
 E4 [DF]>[DG] | [CA]2 [CE]2 [EA]2 | [EB]2 E2 [EB]2 | [Ec]4 [_Gc]2 | [Fe]2 [Fd]2 [FB]2 | %31
w: |||||
w: come to the|Fa- ther, through|Je- sus the|Son, And|give Him the|
w: |||||
 [EA]2 [EG]2 [EA]2 | [Ec]2 [Ec]2 [DB]2 | [CA]4 |] %34
w: |||
w: glo- ry, great|things He has|done.|
w: |||
V:2
 x2 | (C2 E2) x2 | x6 | x6 | x6 | x6 | x6 | x4 =D2 | x6 | (C2 E2) x2 | x6 | x2 E2 x2 | x6 | x6 | %14
 x6 | x6 | x4 || x2 | x6 | x6 | x6 | x6 | x6 | x6 | x6 | x6 | (C2 E2) x2 | x6 | x2 E2 x2 | x6 | %30
 x6 | x6 | x6 | x4 |] %34
V:3
 [A,,A,]2 | A,4 [E,B,]>[E,B,] | [A,,A,]2 [A,,C]2 [C,A,]2 | [E,G,]2 [E,G,]2 [E,G,]2 | %4
 [A,,A,]4 [A,,A,]2 | [F,A,]2 [F,A,]2 [F,A,]2 | [A,,A,]2 [C,A,]2 [A,,A,]2 | %7
 [B,,A,]2 [B,,F,]2 (B,A,) | [E,G,]4 [E,G,]2 | A,4 [E,B,]>[E,B,] | [A,,A,]2 [A,,C]2 [C,A,]2 | %11
 [E,G,]2 [E,G,]2 [E,G,]2 | [A,,A,]4 [A,,A,]2 | [D,A,]2 [D,B,]2 [D,D]2 | [E,C]2 [E,B,]2 [E,C]2 | %15
 [E,A,]2 [E,A,]2 [E,G,]2 | [A,,A,]4 || A,>[A,B,] | [A,C]4 A,>[A,B,] | [A,C]4 [A,C]>[A,,A,] | %20
 [C,A,]2 [B,,G,]2 [A,,A,]2 | [E,G,]4 [E,G,]>[E,A,] | [E,B,]4 [E,G,]>[E,A,] | [E,B,]4 [E,B,][D,G,] | %24
 [C,A,]2 [C,A,]2 [B,,G,]2 | [A,,A,]4 [E,G,]2 | A,4 [E,B,]>[E,B,] | [A,,A,]2 [A,,C]2 [C,A,]2 | %28
 [E,G,]2 [E,G,]2 [E,G,]2 | [A,,A,]4 [A,,A,]2 | [D,A,]2 [D,B,]2 [D,D]2 | [E,C]2 [E,B,]2 [E,C]2 | %32
 [E,A,]2 [E,A,]2 [E,G,]2 | [A,,A,]4 |] %34
V:4
 x2 | (A,,2 C,2) x2 | x6 | x6 | x6 | x6 | x6 | x4 B,,2 | x6 | (A,,2 C,2) x2 | x6 | x6 | x6 | x6 | %14
 x6 | x6 | x4 || A,3/2 x/ | x4 A,3/2 x/ | x6 | x6 | x6 | x6 | x6 | x6 | x6 | (A,,2 C,2) x2 | x6 | %28
 x6 | x6 | x6 | x6 | x6 | x4 |] %34

